www/assets/icons/electric_bike.svg

<svg xmlns="http://www.w3.org/2000/svg" width="24" height="24" viewBox="0 0 24 24" fill='currentColor'><path d="M19 7h-.82l-1.7-4.68A2.01 2.01 0 0 0 14.6 1H12v2h2.6l1.46 4h-4.81l-.36-1H12V4H7v2h1.75l1.82 5H9.9c-.44-2.23-2.31-3.88-4.65-3.99C2.45 6.87 0 9.2 0 12s2.2 5 5 5c2.46 0 4.45-1.69 4.9-4h4.2c.44 2.23 2.31 3.88 4.65 3.99 2.8.13 5.25-2.19 5.25-5C24 9.2 21.8 7 19 7M7.82 13c-.4 1.17-1.49 2-2.82 2-1.68 0-3-1.32-3-3s1.32-3 3-3c1.33 0 2.42.83 2.82 2H5v2zm6.28-2h-1.4l-.73-2H15c-.44.58-.76 1.25-.9 2m4.9 4c-1.68 0-3-1.32-3-3 0-.93.41-1.73 1.05-2.28l.96 2.64 1.88-.68-.97-2.67c.02 0 .05-.01.08-.01 1.68 0 3 1.32 3 3s-1.32 3-3 3m-8 5H7l6 3v-2h4l-6-3z"/></svg>

<svg width="24" height="24" viewBox="0 0 24 24" xmlns="http://www.w3.org/2000/svg" fill='currentColor'><path d="M19 7H18.18L16.48 2.32C16.19 1.53 15.44 1 14.6 1H12V3H14.6L16.06 7H11.25L10.89 6H12V4H7V6H8.75L10.57 11H9.9C9.46 8.77 7.59 7.12 5.25 7.01C2.45 6.87 0 9.2 0 12C0 14.8 2.2 17 5 17C7.46 17 9.45 15.31 9.9 13H14.1C14.54 15.23 16.41 16.88 18.75 16.99C21.55 17.12 24 14.8 24 11.99C24 9.2 21.8 7 19 7ZM7.82 13C7.42 14.17 6.33 15 5 15C3.32 15 2 13.68 2 12C2 10.32 3.32 9 5 9C6.33 9 7.42 9.83 7.82 11H5V13H7.82ZM14.1 11H12.7L11.97 9H15C14.56 9.58 14.24 10.25 14.1 11ZM19 15C17.32 15 16 13.68 16 12C16 11.07 16.41 10.27 17.05 9.72L18.01 12.36L19.89 11.68L18.92 9.01C18.94 9.01 18.97 9 19 9C20.68 9 22 10.32 22 12C22 13.68 20.68 15 19 15Z"/><path d="M11 20H7L13 23V21H17L11 18V20Z"/></svg>
